X:23013
T:Whiskey Before Breakfast.
R:Reel
C:Trad.
O:England
Z:Paul Hardy's Session Tunebook 2015 (see www.paulhardy.net). Creative Commons cc by-nc-sa licenced.
M:2/2
L:1/8
Q:1/2=60
K:D
|:"D"A,B,DE D2DE|FGAB A2FD|"G"G2BG "D"F2AF|"A7"EDEF EDB,G,|
"D"A,B,DE D2DE|FGAB A2FD|"G"G2BG "D"F2AF|"A7"EDEF "D"D2D2:|
|:"D"DFAc d2Bc|dBAG FED2|"A"Acec e2ef|gfed cABc|
"D"d2fd "A"c2ec|"G"BABc "D"BAFD|"G"G2BG "D"FAFD|"A7"EDEF "D"D2D2:|

